X:1
T:Title
%%score 1 { 2 | 3 }
L:1/8
Q:1/4=107
M:4/4
K:C
V:1 treble nm="Grand Piano, Soprano"
V:2 bass nm="Choir Pad, The Word of God (Brooks)"
V:3 bass 
V:1
 C>[CE] [EG]2 [CE]2 [EG]2 | [Ge]2 [Ac]2 [FA]2 [Fc]2 | [Fc]>[Fc] [Ec]2 [EG]2 [EG]2 | %3
w: By~Barney~Elliott~Warren * * * *|||
 [CE]2 [DF]2 [CE]2 [B,D]2 | C>[CE] [EG]2 [EG]2 [Ec][Ec] | [Ec][Ec] [Ge]2 [Gc]2 [FA]2 | %6
w: |||
 [Fd]>[Fd] [Ec]2 [DB]2 [Ec]2 | [Fd]2 [Ec]6 | z2 [EG]2 [EG]2 [EG]2 | [CE]2 [Ec]4 [EG]2- | %10
w: ||||
 [EG]2 [Gc]2 [FA]2 [EG]2 | [DG]2 [EG]6 | z2 [Fd]2 [Fd]2 [Ec]2 | [FB]2 [Gc]2 [Gd]2 [Ge]2 | %14
w: ||||
 [Gc]2 [Gd]6 | z2 [Ge]2 [Ec]2 [Ec]2 | [CG]2 [Ec]4 [EG]2- | [EG]2 [FA]2 [GB]2 [Gc]2 | [Gd]2 [Ge]6 | %19
w: |||||
 z2 [Gc]2 [Ec]2 [Fc]2 | [Ad]2 [Gc]4 [FB]2- | [FB]2 [Ec]6- | [Ec]2 z2 z4 |] %23
w: ||||
V:2
 E,>G, C2 G,2 C2 | C2 C2 C2 A,2 | A,>[K:bass]A, G,2 C2 C2 | G,2 G,2 G,2 G,2 | E,>G, C2 C2 G,G, | %5
 G,G,[K:treble] C2 C2 C2 | A,>A,[K:bass] G,2 G,2 G,2 | G,2 G,6 | z2[K:treble] C2 C2 C2 | %9
 G,2 G,4 C2- | C2 C2 C2 C2 | B,2 C6 | z2 B,2 B,2 C2 | D2 C2 B,2 C2 | C2 B,6 | %15
 z2[K:bass] C2 G,2 G,2 | E,2 G,4[K:treble] C2- | C2 C2 D2 C2 | B,2 C6 | z2 C2 C2 A,2 | F2 E4 D2- | %21
 D2 C6- | C2 z2 z4 |] %23
V:3
 C,>C, C,2 C,2 C,2 | C,2 F,2 F,2 F,2 | F,>F, C,2 C,2 C,2 | C,2 B,,2 C,2 G,,2 | C,>C, C,2 C,2 C,C, | %5
 C,C, C,2 E,2 F,2 | F,>F, z2 z2 G,,2 | G,,2 C,6 | z2 C,2 C,2 C,2 | C,2 C,4 C,2- | C,2 E,2 F,2 G,2 | %11
 G,,2 C,6 | z2 G,2 G,2 A,2 | G,2 E,2 D,2 C,2 | E,2 G,6 | z2 C,2 C,2 C,2 | C,2 C,4 C,2- | %17
 C,2 F,2 D,2 E,2 | G,2 G,6 | z2 E,2 C,2 F,2 | D,2 G,4 [G,,G,]2- | [G,,G,]2 C,6- | C,2 z2 z4 |] %23

